src/components/Result/passed.svg

<?xml version="1.0" encoding="UTF-8"?>
<svg width="148px" height="148px" viewBox="0 0 148 148" version="1.1" xmlns="http://www.w3.org/2000/svg" xmlns:xlink="http://www.w3.org/1999/xlink">
    <title>check@1x</title>
    <g id="testest" stroke="none" stroke-width="1" fill="none" fill-rule="evenodd">
        <g id="Safari" transform="translate(-114.000000, -119.000000)" fill-rule="nonzero">
            <g id="check" transform="translate(114.000000, 119.000000)">
                <g id="noun-seal-4266670" fill="#008526">
                    <path d="M143.405007,50.7869569 C142.115707,46.8185669 139.322671,43.6343446 135.623446,41.8479859 C136.351986,37.805127 135.417086,33.6734436 132.964993,30.2981141 C130.512002,26.9227845 126.871993,24.756006 122.802218,24.1997315 C122.245944,20.129956 120.079165,16.4899475 116.703835,14.0369569 C113.328506,11.5839662 109.194131,10.6490662 105.153964,11.3785036 C103.367605,7.67927871 100.183383,4.88624288 96.2149926,3.59694227 C92.2457056,2.30674458 88.0278894,2.69254773 84.4085167,4.63771366 C81.5670312,1.67241202 77.6749047,0 73.5019493,0 C69.328994,0 65.4368675,1.67241202 62.5953819,4.63771366 C58.9760093,2.69434205 54.757296,2.3067444 50.788906,3.59694227 C46.8205161,4.88624288 43.6362937,7.67927871 41.849935,11.3785036 C37.8061789,10.6499635 33.6744955,11.5857607 30.3000633,14.0369569 C26.9247336,16.4899475 24.7579551,20.1299562 24.2016806,24.1997315 C20.1319051,24.756006 16.4918967,26.9227845 14.038906,30.2981141 C11.5868124,33.6734438 10.6519126,37.805127 11.3804527,41.8479859 C7.68122785,43.6343446 4.88819202,46.8185669 3.5988914,50.7869569 C2.30959078,54.7553468 2.69718844,58.9740601 4.63966279,62.5934328 C1.67436134,65.4349181 0.00194931774,69.3270447 0.00194931774,73.5 C0.00194931774,77.6729553 1.67436134,81.5650819 4.63966298,84.4065674 C2.69718862,88.0259401 2.30959097,92.2446534 3.59889158,96.2130433 C4.8881922,100.181433 7.68122803,103.365656 11.3804529,105.152014 C10.6519128,109.194873 11.5868128,113.326557 14.0389062,116.701886 C16.4918968,120.077216 20.1319055,122.243994 24.2016808,122.800269 C24.7579553,126.870044 26.9247338,130.510053 30.3000635,132.963043 C33.6744959,135.416034 37.8097681,136.349139 41.8499352,135.621497 C43.6362939,139.320721 46.8205162,142.113757 50.7889062,143.403058 C54.7572961,144.690564 58.9751122,144.304761 62.5953821,142.362287 C65.4368675,145.327588 69.328994,147 73.5019493,147 C77.6749047,147 81.5670312,145.327588 84.4085167,142.362286 C88.0278894,144.303863 92.2448082,144.691461 96.2149926,143.403058 C100.183383,142.113757 103.367605,139.320721 105.153964,135.621496 C109.19772,136.351831 113.327609,135.413342 116.703835,132.963043 C120.079165,130.510052 122.245944,126.870044 122.802218,122.800269 C126.871993,122.243994 130.512002,120.077216 132.964993,116.701886 C135.417086,113.326556 136.351986,109.194873 135.623446,105.152014 C139.322671,103.365655 142.115707,100.181433 143.405007,96.2130431 C144.694308,92.2446532 144.30671,88.0259399 142.364236,84.4065672 C145.329537,81.5650819 147.001949,77.6729553 147.001949,73.5 C147.001949,69.3270447 145.329537,65.4349181 142.364236,62.5934326 C144.30671,58.9740601 144.694308,54.7553466 143.405007,50.7869569 Z" id="Shape"></path>
                </g>
                <g id="noun-checkmark-67952" transform="translate(37.204608, 44.291200)" fill="#FFFFFF" stroke="#FFFFFF" stroke-width="2">
                    <path d="M68.7977099,0.646115962 C71.4171461,-2.14699507 75.5844311,1.92629185 72.9649948,4.71940288 C58.4390301,20.7797913 43.7940001,36.6074205 29.1489701,52.5514293 C28.4345783,53.3660867 27.7201866,54.0643644 27.0057949,54.8790218 C25.9342074,56.0428181 23.9100975,55.9264385 22.83851,54.8790218 C15.4564623,48.0126239 8.07441466,41.0298463 0.692367001,34.1634483 C-2.04613455,31.6030966 2.12115042,27.41343 4.85965197,30.0901614 C11.5273079,36.2582816 18.0758986,42.4264018 24.7435545,48.7109016 C39.5076498,32.6505132 54.1526799,16.7065044 68.7977099,0.646115962 Z" id="Path"></path>
                </g>
            </g>
        </g>
    </g>
</svg>

<svg width="148" height="148" xmlns="http://www.w3.org/2000/svg"><g fill="none"><path d="M143.405 50.787c-1.29-3.968-4.082-7.153-7.782-8.939.729-4.043-.206-8.175-2.658-11.55-2.453-3.375-6.093-5.542-10.163-6.098-.556-4.07-2.723-7.71-6.098-10.163-3.375-2.453-7.51-3.388-11.55-2.658-1.786-3.7-4.97-6.493-8.939-7.782-3.97-1.29-8.187-.904-11.806 1.04C81.567 1.673 77.675 0 73.502 0s-8.065 1.672-10.907 4.638c-3.619-1.944-7.838-2.331-11.806-1.041-3.968 1.29-7.153 4.082-8.94 7.782-4.043-.729-8.175.207-11.549 2.658-3.375 2.453-5.542 6.093-6.098 10.163-4.07.556-7.71 2.723-10.163 6.098-2.452 3.375-3.387 7.507-2.659 11.55-3.699 1.786-6.492 4.97-7.781 8.939-1.29 3.968-.902 8.187 1.04 11.806C1.675 65.435.003 69.327.003 73.5s1.672 8.065 4.638 10.907c-1.943 3.619-2.33 7.838-1.041 11.806 1.29 3.968 4.082 7.153 7.781 8.939-.728 4.043.207 8.175 2.659 11.55 2.453 3.375 6.093 5.542 10.163 6.098.556 4.07 2.723 7.71 6.098 10.163a15.02 15.02 0 0011.55 2.658c1.786 3.7 4.97 6.493 8.939 7.782 3.968 1.288 8.186.902 11.806-1.04C65.437 145.327 69.33 147 73.502 147s8.065-1.672 10.907-4.638c3.619 1.942 7.836 2.33 11.806 1.041 3.968-1.29 7.153-4.082 8.939-7.782 4.044.73 8.174-.208 11.55-2.658 3.375-2.453 5.542-6.093 6.098-10.163 4.07-.556 7.71-2.723 10.163-6.098 2.452-3.375 3.387-7.507 2.658-11.55 3.7-1.786 6.493-4.97 7.782-8.939 1.29-3.968.902-8.187-1.04-11.806 2.965-2.842 4.637-6.734 4.637-10.907s-1.672-8.065-4.638-10.907c1.943-3.619 2.33-7.838 1.041-11.806z" fill="#008526"/><path d="M106.002 44.937c2.62-2.793 6.787 1.28 4.168 4.074-14.526 16.06-29.171 31.888-43.816 47.832-.715.814-1.43 1.513-2.144 2.327-1.071 1.164-3.095 1.048-4.167 0-7.382-6.866-14.764-13.849-22.146-20.715-2.739-2.56 1.429-6.75 4.167-4.074 6.668 6.168 13.217 12.337 19.884 18.621 14.764-16.06 29.41-32.004 44.054-48.065z" fill="#FFF" stroke="#FFF" stroke-width="2"/></g></svg>
